symbols/web/lunch_dining/materialsymbolssharp/lunch_dining_wght300grad200fill1_40px.svg

<svg xmlns="http://www.w3.org/2000/svg" height="40" width="40"><path d="M3.292 16.583v-1.875q0-3.916 4.062-6.687Q11.417 5.25 20 5.25q8.583 0 12.688 2.771 4.104 2.771 4.104 6.687v1.875Zm0 7.459v-2.834q1.333 0 2.333-.875 1-.875 3.292-.875 2.291 0 3.083.875.792.875 2.417.875 1.625 0 2.458-.875.833-.875 3.083-.875 2.292 0 3.167.875t2.5.875q1.583 0 2.396-.875.812-.875 3.104-.875t3.25.875q.958.875 2.417.875v2.834q-2.292 0-3.125-.875-.834-.875-2.459-.875t-2.479.875q-.854.875-3.104.875-2.292 0-3.146-.875-.854-.875-2.479-.875t-2.479.875q-.854.875-3.104.875-2.292 0-3.084-.875-.791-.875-2.416-.875t-2.5.875q-.875.875-3.125.875Zm0 10.958v-8.042h33.5V35Z"/></svg>

<svg xmlns="http://www.w3.org/2000/svg" height="40" width="40"><path d="M3.292 16.583V14.708Q3.292 10.792 7.354 8.021Q11.417 5.25 20 5.25Q28.583 5.25 32.688 8.021Q36.792 10.792 36.792 14.708V16.583ZM3.292 24.042V21.208Q4.625 21.208 5.625 20.333Q6.625 19.458 8.917 19.458Q11.208 19.458 12 20.333Q12.792 21.208 14.417 21.208Q16.042 21.208 16.875 20.333Q17.708 19.458 19.958 19.458Q22.25 19.458 23.125 20.333Q24 21.208 25.625 21.208Q27.208 21.208 28.021 20.333Q28.833 19.458 31.125 19.458Q33.417 19.458 34.375 20.333Q35.333 21.208 36.792 21.208V24.042Q34.5 24.042 33.667 23.167Q32.833 22.292 31.208 22.292Q29.583 22.292 28.729 23.167Q27.875 24.042 25.625 24.042Q23.333 24.042 22.479 23.167Q21.625 22.292 20 22.292Q18.375 22.292 17.521 23.167Q16.667 24.042 14.417 24.042Q12.125 24.042 11.333 23.167Q10.542 22.292 8.917 22.292Q7.292 22.292 6.417 23.167Q5.542 24.042 3.292 24.042ZM3.292 35V26.958H36.792V35Z"/></svg>
